symbols/web/storefront/materialsymbolsoutlined/storefront_wght300grad200_48px.svg

<svg xmlns="http://www.w3.org/2000/svg" height="48" width="48"><path d="M42 22.1v16.35q0 1.45-1.05 2.5T38.45 42H9.5Q8.05 42 7 40.95t-1.05-2.5V22.1Q4.4 20.85 4 19.1q-.4-1.75.15-3.5l2.2-6.7q.4-1.35 1.325-2.1Q8.6 6.05 10 6.05h27.8q1.35 0 2.375.75t1.475 2.05l2.2 6.75q.55 1.75.15 3.6t-2 2.9Zm-13.45-1.55q1.5 0 2.475-.875Q32 18.8 31.9 17.5l-1.35-8.55H25.5v8.3q0 1.3.875 2.3.875 1 2.175 1Zm-9.35 0q1.35 0 2.35-.975t1-2.325v-8.3h-5.1l-1.35 8.6q-.2 1.3.7 2.15.9.85 2.4.85Zm-9.2 0q1.2 0 2.075-.85.875-.85 1.075-2.05l1.3-8.7H10q-.3 0-.525.15-.225.15-.275.45L7.05 16.3q-.6 1.65.35 2.95.95 1.3 2.6 1.3Zm27.95 0q1.6 0 2.55-1.225.95-1.225.45-3.025l-2.1-6.8q-.05-.3-.25-.425t-.55-.125h-4.5l1.25 8.7q.2 1.2 1.05 2.05.85.85 2.1.85ZM9.5 39.1h28.95q.25 0 .45-.175t.2-.475V23.4q-.05.05-.45.075-.4.025-.75.025-1.3 0-2.425-.55-1.125-.55-2.125-1.65-.85 1-2.05 1.6-1.2.6-2.65.6-1.5 0-2.6-.5T24 21.5q-.85.95-2.025 1.475-1.175.525-2.525.525-1.55 0-2.75-.55t-2.05-1.65q-1.25 1.15-2.4 1.675-1.15.525-2.2.525-.4 0-.725-.025Q9 23.45 8.85 23.4v15.05q0 .3.2.475t.45.175Zm28.95 0H9.5 38.45Z"/></svg>

<svg xmlns="http://www.w3.org/2000/svg" height="48" width="48"><path d="M42 22.1V38.45Q42 39.9 40.95 40.95Q39.9 42 38.45 42H9.5Q8.05 42 7 40.95Q5.95 39.9 5.95 38.45V22.1Q4.4 20.85 4 19.1Q3.6 17.35 4.15 15.6L6.35 8.9Q6.75 7.55 7.675 6.8Q8.6 6.05 10 6.05H37.8Q39.15 6.05 40.175 6.8Q41.2 7.55 41.65 8.85L43.85 15.6Q44.4 17.35 44 19.2Q43.6 21.05 42 22.1ZM28.55 20.55Q30.05 20.55 31.025 19.675Q32 18.8 31.9 17.5L30.55 8.95H25.5V17.25Q25.5 18.55 26.375 19.55Q27.25 20.55 28.55 20.55ZM19.2 20.55Q20.55 20.55 21.55 19.575Q22.55 18.6 22.55 17.25V8.95H17.45L16.1 17.55Q15.9 18.85 16.8 19.7Q17.7 20.55 19.2 20.55ZM10 20.55Q11.2 20.55 12.075 19.7Q12.95 18.85 13.15 17.65L14.45 8.95H10Q9.7 8.95 9.475 9.1Q9.25 9.25 9.2 9.55L7.05 16.3Q6.45 17.95 7.4 19.25Q8.35 20.55 10 20.55ZM37.95 20.55Q39.55 20.55 40.5 19.325Q41.45 18.1 40.95 16.3L38.85 9.5Q38.8 9.2 38.6 9.075Q38.4 8.95 38.05 8.95H33.55L34.8 17.65Q35 18.85 35.85 19.7Q36.7 20.55 37.95 20.55ZM9.5 39.1H38.45Q38.7 39.1 38.9 38.925Q39.1 38.75 39.1 38.45V23.4Q39.05 23.45 38.65 23.475Q38.25 23.5 37.9 23.5Q36.6 23.5 35.475 22.95Q34.35 22.4 33.35 21.3Q32.5 22.3 31.3 22.9Q30.1 23.5 28.65 23.5Q27.15 23.5 26.05 23Q24.95 22.5 24 21.5Q23.15 22.45 21.975 22.975Q20.8 23.5 19.45 23.5Q17.9 23.5 16.7 22.95Q15.5 22.4 14.65 21.3Q13.4 22.45 12.25 22.975Q11.1 23.5 10.05 23.5Q9.65 23.5 9.325 23.475Q9 23.45 8.85 23.4V38.45Q8.85 38.75 9.05 38.925Q9.25 39.1 9.5 39.1ZM38.45 39.1H9.5Q9.5 39.1 9.5 39.1Q9.5 39.1 9.5 39.1Q9.45 39.1 9.625 39.1Q9.8 39.1 10.05 39.1Q10.75 39.1 12.25 39.1Q13.75 39.1 14.65 39.1Q14.95 39.1 15.55 39.1Q16.15 39.1 16.85 39.1Q17.55 39.1 18.275 39.1Q19 39.1 19.45 39.1Q19.8 39.1 20.45 39.1Q21.1 39.1 21.8 39.1Q22.5 39.1 23.1 39.1Q23.7 39.1 24 39.1Q24.65 39.1 26.175 39.1Q27.7 39.1 28.65 39.1Q29.05 39.1 29.75 39.1Q30.45 39.1 31.15 39.1Q31.85 39.1 32.45 39.1Q33.05 39.1 33.3 39.1Q34.05 39.1 35.6 39.1Q37.15 39.1 37.9 39.1Q38.05 39.1 38.325 39.1Q38.6 39.1 38.45 39.1Q38.45 39.1 38.45 39.1Q38.45 39.1 38.45 39.1Z"/></svg>
